symbols/default/02m.svg

<svg width="100" height="100" viewBox="0 0 100 100" fill="none" xmlns="http://www.w3.org/2000/svg">
<g clip-path="url(#clip0_149_1383)">
<path fill-rule="evenodd" clip-rule="evenodd" d="M64.2478 41H9L24.4 47.8L14.5 61.5L31.2 59.7L29.5 76.5L42.7124 66.8822C41.6237 65.0478 41.041 62.9438 41 60.7315V60.6076C41 57.4475 42.2392 54.4733 44.4699 52.2427C46.6386 50.012 49.4888 48.7108 52.5869 48.525C54.2599 46.1084 57.0482 44.6833 60.0843 44.6833H60.7659C61.7531 43.2939 62.9291 42.0555 64.2478 41ZM44.0441 68.7071L50 82L54.0287 72.8761H53.3305C50.1084 72.8761 47.0723 71.6988 44.7797 69.4682C44.5217 69.2234 44.2765 68.9695 44.0441 68.7071ZM65.5737 72.8761L70.5 76.4L70.1202 72.8761H65.5737ZM88.1821 42.2626C87.7341 41.8179 87.2626 41.3964 86.77 41H91L88.1821 42.2626Z" fill="url(#paint0_radial_149_1383)"/>
<path fill-rule="evenodd" clip-rule="evenodd" d="M69.6587 38H6.5C5.67157 38 5 38.6716 5 39.5C5 40.3284 5.67157 41 6.5 41H64.2478C65.8652 39.7053 67.6973 38.6857 69.6587 38ZM86.77 41C85.1688 39.7117 83.3439 38.6888 81.376 38H93.5C94.3284 38 95 38.6716 95 39.5C95 40.3284 94.3284 41 93.5 41H86.77Z" fill="#171F28"/>
<path fill-rule="evenodd" clip-rule="evenodd" d="M64.2478 41C62.9291 42.0555 61.7531 43.2939 60.7659 44.6833H60.0843C57.0482 44.6833 54.2599 46.1084 52.5869 48.525C49.4888 48.7108 46.6386 50.012 44.4699 52.2427C42.2392 54.4733 41 57.4475 41 60.6076V60.7315C41.0246 62.06 41.2446 63.3495 41.6522 64.565C36.2045 62.6516 31.392 58.8717 28.2837 53.5087C26.0379 49.5769 24.9805 45.2632 25.0003 41H64.2478Z" fill="#FFD348"/>
<path fill-rule="evenodd" clip-rule="evenodd" d="M64.2478 41C62.9291 42.0555 61.7531 43.2939 60.7659 44.6833H60.0843C57.0482 44.6833 54.2599 46.1084 52.5869 48.525C49.4888 48.7108 46.6386 50.012 44.4699 52.2427C42.3916 54.321 41.1739 57.0447 41.0173 59.9629C37.2803 58.197 34.0225 55.3231 31.8038 51.4978C29.8881 48.1948 28.9872 44.5754 29.0001 41H64.2478Z" fill="url(#paint1_linear_149_1383)"/>
<path fill-rule="evenodd" clip-rule="evenodd" d="M90.272 52.4285C89.0947 45.4268 82.8985 40.0981 75.6489 40.0981C70.0103 40.0981 64.9295 43.2582 62.451 48.2151C61.7074 47.9053 60.9639 47.7814 60.2203 47.7814C57.6179 47.7814 55.3873 49.3304 54.5198 51.623C54.148 51.5611 53.8382 51.5611 53.4665 51.5611C50.926 51.5611 48.5714 52.5525 46.8365 54.3494C45.1635 56.0843 44.2341 58.315 44.2341 60.6695V60.7934C44.2961 63.3339 45.2875 65.6265 47.0844 67.2995C48.7573 68.9724 51.0499 69.9019 53.4665 69.9019H87.9794C92.8744 69.9019 96.9019 65.9363 96.9019 61.0413C96.9019 56.9518 94.1136 53.4199 90.272 52.4285Z" fill="#DDDDDD"/>
<g opacity="0.6">
<path fill-rule="evenodd" clip-rule="evenodd" d="M90.272 52.4285C89.0947 45.4268 82.8985 40.0981 75.6489 40.0981C70.0103 40.0981 64.9295 43.2582 62.451 48.2151C61.7074 47.9053 60.9639 47.7814 60.2203 47.7814C57.6179 47.7814 55.3873 49.3304 54.5198 51.623C54.148 51.5611 53.8382 51.5611 53.4665 51.5611C50.926 51.5611 48.5714 52.5525 46.8365 54.3494C45.1635 56.0843 44.2341 58.315 44.2341 60.6695V60.7934C44.2961 63.3339 45.2875 65.6265 47.0844 67.2995C48.7573 68.9724 51.0499 69.9019 53.4665 69.9019H87.9794C92.8744 69.9019 96.9019 65.9363 96.9019 61.0413C96.9019 56.9518 94.1136 53.4199 90.272 52.4285Z" fill="url(#paint2_linear_149_1383)" style="mix-blend-mode:multiply"/>
</g>
</g>
<defs>
<radialGradient id="paint0_radial_149_1383" cx="0" cy="0" r="1" gradientUnits="userSpaceOnUse" gradientTransform="translate(50 41) scale(41)">
<stop offset="0.5143" stop-color="#D6B849"/>
<stop offset="0.6523" stop-color="#FFCE47"/>
<stop offset="1" stop-color="#FFDB73"/>
</radialGradient>
<linearGradient id="paint1_linear_149_1383" x1="36.5002" y1="24.912" x2="63.4995" y2="57.0886" gradientUnits="userSpaceOnUse">
<stop stop-color="#FFAF22"/>
<stop offset="0.9897" stop-color="#F09900"/>
</linearGradient>
<linearGradient id="paint2_linear_149_1383" x1="69.3288" y1="49.7022" x2="70.568" y2="69.9019" gradientUnits="userSpaceOnUse">
<stop offset="0.484375" stop-color="white" stop-opacity="0"/>
<stop offset="1" stop-color="#B3B2B2"/>
</linearGradient>
<clipPath id="clip0_149_1383">
<rect width="100" height="100" fill="white"/>
</clipPath>
</defs>
</svg>

<svg xmlns="http://www.w3.org/2000/svg" fill="none" viewBox="0 0 100 100">
  <g clip-path="url(#a)">
    <path fill="url(#b)" fill-rule="evenodd" d="M64.248 41H9l15.4 6.8-9.9 13.7 16.7-1.8-1.7 16.8 13.212-9.618c-1.088-1.834-1.671-3.938-1.712-6.15v-.124c0-3.16 1.24-6.135 3.47-8.365a12.25 12.25 0 0 1 8.117-3.718c1.673-2.417 4.461-3.842 7.497-3.842h.682A18.298 18.298 0 0 1 64.248 41ZM44.044 68.707 50 82l4.029-9.124h-.699c-3.222 0-6.258-1.177-8.55-3.408a12.195 12.195 0 0 1-.736-.76Zm21.53 4.17L70.5 76.4l-.38-3.524h-4.546Zm22.608-30.614c-.448-.445-.92-.867-1.412-1.263H91l-2.818 1.263Z" clip-rule="evenodd"/>
    <path fill="#171F28" fill-rule="evenodd" d="M69.659 38H6.5a1.5 1.5 0 0 0 0 3h57.748a18.374 18.374 0 0 1 5.41-3Zm17.111 3a18.216 18.216 0 0 0-5.394-3H93.5a1.5 1.5 0 0 1 0 3h-6.73Z" clip-rule="evenodd"/>
    <path fill="#FFD348" fill-rule="evenodd" d="M64.248 41a18.298 18.298 0 0 0-3.482 3.683h-.682c-3.036 0-5.824 1.425-7.497 3.842a12.25 12.25 0 0 0-8.117 3.718A11.765 11.765 0 0 0 41 60.608v.123c.025 1.329.245 2.618.652 3.834-5.447-1.913-10.26-5.693-13.368-11.056A24.921 24.921 0 0 1 25 41h39.248Z" clip-rule="evenodd"/>
    <path fill="url(#c)" fill-rule="evenodd" d="M64.248 41a18.298 18.298 0 0 0-3.482 3.683h-.682c-3.036 0-5.824 1.425-7.497 3.842a12.25 12.25 0 0 0-8.117 3.718 11.761 11.761 0 0 0-3.453 7.72 20.986 20.986 0 0 1-9.213-8.465A20.71 20.71 0 0 1 29 41h35.248Z" clip-rule="evenodd"/>
    <path fill="#DDD" fill-rule="evenodd" d="M90.272 52.428c-1.177-7.001-7.374-12.33-14.623-12.33-5.639 0-10.72 3.16-13.198 8.117a5.715 5.715 0 0 0-2.23-.434c-2.603 0-4.834 1.55-5.701 3.842-.372-.062-.682-.062-1.053-.062-2.541 0-4.896.992-6.63 2.788-1.674 1.735-2.603 3.966-2.603 6.32v.124c.062 2.54 1.053 4.833 2.85 6.506 1.673 1.673 3.966 2.603 6.383 2.603h34.512c4.895 0 8.923-3.966 8.923-8.86 0-4.09-2.788-7.622-6.63-8.614Z" clip-rule="evenodd"/>
    <path fill="url(#d)" fill-rule="evenodd" d="M90.272 52.428c-1.177-7.001-7.374-12.33-14.623-12.33-5.639 0-10.72 3.16-13.198 8.117a5.715 5.715 0 0 0-2.23-.434c-2.603 0-4.834 1.55-5.701 3.842-.372-.062-.682-.062-1.053-.062-2.541 0-4.896.992-6.63 2.788-1.674 1.735-2.603 3.966-2.603 6.32v.124c.062 2.54 1.053 4.833 2.85 6.506 1.673 1.673 3.966 2.603 6.383 2.603h34.512c4.895 0 8.923-3.966 8.923-8.86 0-4.09-2.788-7.622-6.63-8.614Z" clip-rule="evenodd" opacity=".6" style="mix-blend-mode:multiply"/>
    <g filter="url(#e)" opacity=".3" style="mix-blend-mode:multiply">
      <path fill="#B6B6B6" d="M58.176 65.503c1.107 0 15.396-.789 16.407-1.24 1.382-.616-1.481-4.32 0-4.628.669-.139 1.652-.575 1.652-.575s2.698-.992 3.163-.992c.465 0 .232-1.837.086-2.98l-.086-.819c0-.539-1.606-1.657-1.86-3.017-.175-.947.263-2.221.172-2.459 0 0-.032-.017-.022-.02.008-.002.016.005.022.02.07.033.571.203.571.203 1.207.409 3.116 1.078 4.834 2.256 1.028.704 2.442 2.053 2.442 2.053s1.02.788 1.276 1.045c.62.62 2.478 2.478 3.718 2.478h3.098l1.394.985.31 1.99c0 4.895-4.028 8.86-8.923 8.86H51.36s2.788-3.16 6.816-3.16Z"/>
    </g>
  </g>
  <defs>
    <linearGradient id="c" x1="36.5" x2="63.499" y1="24.912" y2="57.089" gradientUnits="userSpaceOnUse">
      <stop stop-color="#FFAF22"/>
      <stop offset=".99" stop-color="#F09900"/>
    </linearGradient>
    <linearGradient id="d" x1="69.329" x2="70.568" y1="49.702" y2="69.902" gradientUnits="userSpaceOnUse">
      <stop offset=".484" stop-color="#fff" stop-opacity="0"/>
      <stop offset="1" stop-color="#B3B2B2"/>
    </linearGradient>
    <radialGradient id="b" cx="0" cy="0" r="1" gradientTransform="matrix(41 0 0 41 50 41)" gradientUnits="userSpaceOnUse">
      <stop offset=".514" stop-color="#D6B849"/>
      <stop offset=".652" stop-color="#FFCE47"/>
      <stop offset="1" stop-color="#FFDB73"/>
    </radialGradient>
    <clipPath id="a">
      <path fill="#fff" d="M0 0h100v100H0z"/>
    </clipPath>
    <filter id="e" width="52.668" height="28.565" x="47.022" y="44.435" color-interpolation-filters="sRGB" filterUnits="userSpaceOnUse">
      <feFlood flood-opacity="0" result="BackgroundImageFix"/>
      <feBlend in="SourceGraphic" in2="BackgroundImageFix" result="shape"/>
      <feGaussianBlur result="effect1_foregroundBlur_149_1383" stdDeviation="2.169"/>
    </filter>
  </defs>
</svg>
